public/svg/arrow5.svg

<svg width="72" height="141" viewBox="0 0 72 141" fill="none" xmlns="http://www.w3.org/2000/svg">
<path d="M57.3503 8.12866C56.3402 8.37323 55.3935 8.82954 54.5729 9.46739C53.7523 10.1052 53.0766 10.9101 52.5903 11.8287C51.5317 13.6818 51.0576 15.8115 51.2303 17.9387C51.4706 20.1225 52.151 22.235 53.2303 24.1487C54.2845 26.1037 55.5057 27.964 56.8803 29.7087C58.3251 31.5341 59.6035 33.4852 60.7003 35.5387C61.9303 37.6575 62.5045 40.0935 62.3503 42.5387C62.1921 43.8205 61.6943 45.0368 60.9084 46.0618C60.1226 47.0867 59.0772 47.8831 57.8803 48.3687C55.5642 49.1822 53.0667 49.3311 50.6703 48.7987C49.5104 48.5913 48.3648 48.3107 47.2403 47.9587C46.1203 47.6087 45.0803 47.2487 43.9903 46.9587C41.926 46.2924 39.756 46.0143 37.5903 46.1387C36.5874 46.2269 35.6153 46.5305 34.7403 47.0287C33.9036 47.528 33.1921 48.2121 32.6603 49.0287C31.7013 50.8259 31.4583 52.9196 31.9803 54.8887C32.4494 56.9801 33.3076 58.9646 34.5103 60.7387C34.7903 61.1987 35.1403 61.6087 35.4503 62.0487C35.7603 62.4887 36.1103 62.8387 36.5203 63.2687C37.3003 64.1087 38.0703 64.8787 38.8803 65.6987C40.5572 67.3291 42.1271 69.066 43.5803 70.8987C45.179 72.8384 46.3083 75.121 46.8803 77.5687C47.1625 78.86 47.2032 80.1925 47.0003 81.4987C46.8775 82.1949 46.6517 82.869 46.3303 83.4987L46.2003 83.7487L46.1303 83.8687V83.9287L46.0403 84.0587L45.7903 84.4087C45.5653 84.7131 45.3144 84.9975 45.0403 85.2587C43.9652 86.217 42.6409 86.8514 41.2203 87.0887C39.9599 87.3122 38.6756 87.3694 37.4003 87.2587C36.2024 87.1648 35.0105 87.0045 33.8303 86.7787L32.1803 86.5087C31.6603 86.4587 31.1803 86.3787 30.6103 86.3487C28.5103 86.156 26.3932 86.2807 24.3303 86.7187C22.4586 87.0411 20.7444 87.9685 19.4503 89.3587C19.3203 89.5287 19.1803 89.6887 19.0603 89.8587L18.7503 90.4187C18.6474 90.6087 18.5669 90.8101 18.5103 91.0187L18.4003 91.3187V91.3987C18.4003 91.5187 18.4003 91.2787 18.4003 91.3187V91.5287C18.3503 91.7987 18.2803 92.0987 18.2403 92.3487C18.2003 92.5987 18.2403 92.7087 18.2403 92.8887C18.2429 93.3223 18.2898 93.7546 18.3803 94.1787C18.8969 96.0992 19.8597 97.8706 21.1903 99.3487C22.5603 101.019 24.1003 102.509 25.8003 104.199L26.3903 104.819C26.5903 105.039 26.8103 105.299 27.0203 105.549C27.4503 106.049 27.8003 106.549 28.1703 107.039C28.8381 108.103 29.4103 109.224 29.8803 110.389C30.4392 111.576 30.8328 112.834 31.0503 114.129C31.3164 115.542 31.2445 116.998 30.8403 118.379C30.7366 118.744 30.5993 119.099 30.4303 119.439C30.2826 119.792 30.0947 120.128 29.8703 120.439C29.6765 120.762 29.4449 121.06 29.1803 121.329L28.7903 121.739L28.5903 121.939L28.4503 122.059L28.3703 122.129C28.1238 122.336 27.8631 122.527 27.5903 122.699C27.2736 122.916 26.9391 123.107 26.5903 123.269C26.2682 123.426 25.9338 123.556 25.5903 123.659C25.2637 123.772 24.9296 123.862 24.5903 123.929C22.1737 124.264 19.7245 124.294 17.3003 124.019C16.7537 124.019 16.217 124.019 15.6903 124.019H15.0303L14.1803 124.109C13.9087 124.127 13.6383 124.16 13.3703 124.209L12.7103 124.369C12.2366 124.48 11.7719 124.627 11.3203 124.809C9.4166 125.556 7.70709 126.725 6.32033 128.229C4.86373 129.718 3.76126 131.516 3.09475 133.489C2.42824 135.463 2.21482 137.561 2.47033 139.629L0.330331 139.799C0.480331 137.939 0.660331 136.089 0.850331 134.229C0.86094 134.01 0.958033 133.804 1.12025 133.657C1.20057 133.584 1.29447 133.528 1.39657 133.491C1.49868 133.455 1.60699 133.438 1.71533 133.444C1.82367 133.449 1.92992 133.475 2.028 133.522C2.12608 133.568 2.21408 133.633 2.28698 133.714C2.35987 133.794 2.41623 133.888 2.45284 133.99C2.48945 134.092 2.50558 134.2 2.50033 134.309C2.50033 136.179 2.50033 138.039 2.50033 139.899C2.48903 140.156 2.38638 140.4 2.21085 140.588C2.03533 140.776 1.79845 140.895 1.54286 140.924C1.28727 140.953 1.02974 140.89 0.816623 140.746C0.603506 140.602 0.448794 140.387 0.380331 140.139V140.069C-0.181849 137.636 -0.119931 135.101 0.560331 132.699C1.18785 130.304 2.31978 128.071 3.88033 126.149C5.5037 124.206 7.5582 122.668 9.88033 121.659C10.4795 121.392 11.0979 121.172 11.7303 120.999L12.7303 120.739C13.0703 120.649 13.3103 120.639 13.6103 120.589L14.4603 120.469L15.4603 120.409C16.0703 120.409 16.6803 120.409 17.2703 120.409C19.3866 120.602 21.5184 120.541 23.6203 120.229C23.8374 120.183 24.0512 120.123 24.2603 120.049C24.4607 119.991 24.655 119.914 24.8403 119.819C25.0002 119.748 25.154 119.664 25.3003 119.569C25.5103 119.441 25.7078 119.293 25.8903 119.129L25.9703 119.059H25.9103L26.0103 118.949L26.2103 118.729C26.3514 118.596 26.4697 118.44 26.5603 118.269C26.6787 118.117 26.7731 117.949 26.8403 117.769C26.9268 117.597 26.9939 117.416 27.0403 117.229C27.5203 115.739 27.0403 113.759 26.2303 111.949C25.8546 111.042 25.403 110.169 24.8803 109.339C24.5803 108.929 24.2703 108.479 23.9503 108.119C23.7903 107.929 23.6503 107.749 23.4703 107.549L22.8803 106.919C21.3603 105.379 19.6303 103.679 18.1203 101.809C16.4108 99.862 15.1933 97.5334 14.5703 95.0187C14.4298 94.3277 14.3628 93.6238 14.3703 92.9187C14.3703 92.5287 14.4203 92.1387 14.4603 91.7487C14.5003 91.3587 14.5703 91.1787 14.6303 90.8987V90.6887C14.6274 90.6287 14.6274 90.5686 14.6303 90.5087V90.4487V90.3287L14.8103 89.8287C14.9152 89.4832 15.0525 89.1484 15.2203 88.8287L15.7503 87.8987C15.9503 87.6087 16.1803 87.3287 16.4003 87.0487C17.3626 85.9698 18.5508 85.1162 19.8803 84.5487C21.0432 83.9787 22.2777 83.5683 23.5503 83.3287C25.964 82.8557 28.4354 82.7512 30.8803 83.0187C31.4803 83.0187 32.1003 83.1687 32.7103 83.2487L34.4303 83.5687C35.4868 83.7974 36.5551 83.9676 37.6303 84.0787C39.7003 84.2987 41.7903 84.0787 42.9403 83.0787C43.0503 82.9387 43.1403 82.9587 43.3303 82.6687L43.5903 82.3287C43.5903 82.3287 43.6703 82.2087 43.5903 82.3287V82.2687L43.6603 82.1387C43.8603 81.7658 44.002 81.3645 44.0803 80.9487C44.256 80.0001 44.256 79.0273 44.0803 78.0787C43.6697 76.0416 42.7973 74.1258 41.5303 72.4787C40.1932 70.7011 38.7435 69.0109 37.1903 67.4187C36.4203 66.5887 35.6103 65.7287 34.8603 64.8687C34.0345 63.9836 33.2852 63.0302 32.6203 62.0187C31.2928 59.978 30.3632 57.7047 29.8803 55.3187C29.2953 52.8127 29.685 50.178 30.9703 47.9487C31.1541 47.6587 31.3614 47.3844 31.5903 47.1287L31.9303 46.7287L32.2503 46.4387L32.5703 46.1587L32.7303 46.0187L32.8103 45.9487L32.9203 45.8587H32.9703C33.2403 45.6787 33.5103 45.4887 33.7903 45.3387C34.9161 44.7225 36.1606 44.3543 37.4403 44.2587C39.842 44.1479 42.2433 44.487 44.5203 45.2587C46.6412 46.0129 48.805 46.6407 51.0003 47.1387C53.0784 47.6304 55.2521 47.537 57.2803 46.8687C58.212 46.5002 59.0284 45.8899 59.6454 45.1006C60.2624 44.3113 60.6577 43.3717 60.7903 42.3787C60.9211 40.2448 60.4202 38.1196 59.3503 36.2687C58.2996 34.2967 57.0747 32.4226 55.6903 30.6687C54.2537 28.843 52.9789 26.8956 51.8803 24.8487C50.7341 22.7595 50.0071 20.4666 49.7403 18.0987C49.4991 15.6441 50.0119 13.1743 51.2103 11.0187C51.8156 9.93488 52.6157 8.97209 53.5703 8.17866C54.0616 7.79247 54.591 7.45741 55.1503 7.17866C55.4503 7.03866 55.7603 6.91866 56.0703 6.78866L56.8803 6.53866C56.9841 6.50846 57.0928 6.49898 57.2002 6.51078C57.3076 6.52257 57.4116 6.55541 57.5063 6.60741C57.601 6.65941 57.6846 6.72956 57.7522 6.81385C57.8198 6.89814 57.8701 6.99492 57.9003 7.09866C57.9305 7.2024 57.94 7.31108 57.9282 7.41849C57.9164 7.52589 57.8836 7.62992 57.8316 7.72464C57.7796 7.81936 57.7094 7.9029 57.6251 7.97051C57.5409 8.03811 57.4441 8.08846 57.3403 8.11866L57.3503 8.12866Z" fill="#C1CEBE"/>
<path d="M62.7212 10.0187L61.2612 7.93866C60.7746 7.27199 60.3046 6.57533 59.8512 5.84866C58.8812 4.45866 58.0612 3.01866 57.2112 1.53866C57.1293 1.39945 57.0887 1.23977 57.0942 1.07832C57.0998 0.91688 57.1512 0.760356 57.2425 0.627088C57.3338 0.49382 57.4612 0.389326 57.6097 0.325846C57.7583 0.262367 57.9218 0.242529 58.0812 0.268659H58.1812C60.0936 0.587932 62.0343 0.705244 63.9712 0.618659C64.9712 0.618659 65.8912 0.498659 66.8412 0.408659C67.7912 0.318659 68.7312 0.178659 69.6712 0.0186587C70.0038 -0.0308674 70.3435 0.0187196 70.648 0.161221C70.9525 0.303722 71.2082 0.532814 71.3832 0.819859C71.5582 1.1069 71.6447 1.43916 71.6319 1.77511C71.6191 2.11105 71.5076 2.43576 71.3112 2.70866L71.2312 2.81866C70.7412 3.49866 70.2312 4.14866 69.7112 4.81866C69.1912 5.48866 68.6612 6.11866 68.0912 6.73866C67.5251 7.36193 66.9277 7.95603 66.3012 8.51866C65.6796 9.10591 65.0106 9.64105 64.3012 10.1187C64.1625 10.2113 63.9981 10.2576 63.8315 10.251C63.6648 10.2445 63.5045 10.1853 63.3736 10.0821C63.2426 9.97887 63.1476 9.83684 63.1023 9.67636C63.057 9.51587 63.0636 9.34515 63.1212 9.18866C63.409 8.37737 63.7636 7.59134 64.1812 6.83866C64.5774 6.09371 65.0113 5.36943 65.4812 4.66866C65.9412 3.96866 66.4812 3.29866 66.9512 2.66866C67.4212 2.03866 67.9512 1.35866 68.5312 0.668659L70.1012 3.45866C69.0605 3.54886 68.0152 3.57558 66.9712 3.53866C65.9376 3.50823 64.9063 3.42479 63.8812 3.28866C61.8556 2.98823 59.8514 2.55733 57.8812 1.99866L58.8812 0.748659C59.5402 2.24579 60.2951 3.69881 61.1412 5.09866C61.5712 5.78866 62.0312 6.46866 62.5012 7.09866C62.9712 7.72866 63.5012 8.39866 64.0212 9.03866C64.1538 9.18983 64.221 9.38749 64.2078 9.58816C64.1947 9.78882 64.1024 9.97605 63.9512 10.1087C63.8001 10.2413 63.6024 10.3084 63.4017 10.2953C63.2011 10.2821 63.0138 10.1898 62.8812 10.0387V9.97866L62.7212 10.0187Z" fill="#C1CEBE"/>
</svg>

<svg xmlns="http://www.w3.org/2000/svg" width="72" height="141" fill="#c1cebe" xmlns:v="https://vecta.io/nano"><path d="M57.35 8.13a7.34 7.34 0 0 0-4.76 3.7 10.59 10.59 0 0 0-1.36 6.11 16.26 16.26 0 0 0 2 6.21 38.51 38.51 0 0 0 3.65 5.56 38.95 38.95 0 0 1 3.82 5.83 12.39 12.39 0 0 1 1.65 7 7.25 7.25 0 0 1-4.47 5.83 13.15 13.15 0 0 1-7.21.43 27.95 27.95 0 0 1-3.43-.84l-3.25-1a17.56 17.56 0 0 0-6.4-.82 7 7 0 0 0-2.85.89 6.39 6.39 0 0 0-2.08 2 8.06 8.06 0 0 0-.68 5.86 17.09 17.09 0 0 0 2.53 5.85c.28.46.63.87.94 1.3s.66.8 1.07 1.22l2.36 2.43a54.23 54.23 0 0 1 4.7 5.2 16.33 16.33 0 0 1 3.3 6.67 10.71 10.71 0 0 1 .12 3.93 7.12 7.12 0 0 1-.67 2l-.13.25-.07.12v.06l-.1.13-.25.35a6.56 6.56 0 0 1-.75.85 7.63 7.63 0 0 1-3.82 1.83 14.63 14.63 0 0 1-3.82.17 32.17 32.17 0 0 1-3.57-.48l-1.65-.27-1.57-.16a21 21 0 0 0-6.28.37 8.68 8.68 0 0 0-4.88 2.64l-.4.5-.3.56a2.8 2.8 0 0 0-.24.6l-.1.3v.08c0 .12 0-.12 0-.08v.2l-.16.82c-.04.25 0 .36 0 .54.003.434.05.866.14 1.3a12.63 12.63 0 0 0 2.81 5.17c1.37 1.67 2.9 3.16 4.6 4.85l.6.62.63.73c.43.5.78 1 1.15 1.5a20.39 20.39 0 0 1 1.7 3.35 14.3 14.3 0 0 1 1.17 3.74 9.12 9.12 0 0 1-.21 4.25 6.17 6.17 0 0 1-.41 1.06 5.03 5.03 0 0 1-.56 1c-.194.323-.425.62-.7.9l-.6.6-.14.12-.08.07c-.247.207-.507.398-.78.57a6.9 6.9 0 0 1-1 .57c-.322.157-.656.287-1 .4a7.49 7.49 0 0 1-1 .27c-2.417.335-4.866.365-7.3.1H15l-.85.1a7.12 7.12 0 0 0-.81.1l-.66.16c-.474.1-.938.258-1.4.44-1.904.747-3.613 1.916-5 3.42a13.87 13.87 0 0 0-3.226 5.26 13.86 13.86 0 0 0-.624 6.14l-2.14.17.52-5.57c.01-.22.108-.425.27-.572a.83.83 0 0 1 .276-.166c.102-.036.2-.053.32-.047a.81.81 0 0 1 .313.078.81.81 0 0 1 .259.192.81.81 0 0 1 .166.276c.036.102.053.2.047.32v5.6a1.08 1.08 0 0 1-2.12.24v-.07a14.81 14.81 0 0 1 .18-7.37 17.38 17.38 0 0 1 3.32-6.55 16.41 16.41 0 0 1 6-4.5 12.97 12.97 0 0 1 1.85-.66l1-.26c.34-.1.58-.1.88-.15l.85-.12 1-.06h1.8a26.72 26.72 0 0 0 6.35-.18 5.11 5.11 0 0 0 .64-.18 3.26 3.26 0 0 0 .58-.23 3.32 3.32 0 0 0 .46-.25 5.57 5.57 0 0 0 .6-.44l.08-.07h-.06l.3-.33a1.8 1.8 0 0 0 .35-.46c.118-.152.213-.32.28-.5a2.59 2.59 0 0 0 .2-.54c.48-1.5 0-3.47-.8-5.28-.376-.907-.827-1.78-1.35-2.6l-.93-1.22-.48-.57-.6-.63-4.76-5.1c-1.7-1.947-2.927-4.276-3.55-6.8-.14-.7-.207-1.395-.2-2.1 0-.4.05-.78.1-1.17s.1-.57.17-.85v-.57l.18-.5a5.74 5.74 0 0 1 .41-1l.53-.93.65-.85a9.84 9.84 0 0 1 3.48-2.5 14.4 14.4 0 0 1 3.67-1.22 24.01 24.01 0 0 1 7.33-.3c.6 0 1.22.15 1.83.23l1.72.32a26.64 26.64 0 0 0 3.2.5c2.07.22 4.16 0 5.3-1 .1-.14.2-.12.4-.4l.26-.34s.08-.12 0 0v-.06l.07-.13a4.14 4.14 0 0 0 .42-1.19 7.88 7.88 0 0 0 0-2.87 13.59 13.59 0 0 0-2.55-5.6 52.08 52.08 0 0 0-4.34-5.06l-2.33-2.55c-.826-.885-1.575-1.84-2.24-2.85a19.3 19.3 0 0 1-2.74-6.7 10.14 10.14 0 0 1 1.09-7.37 6.23 6.23 0 0 1 .62-.82l.34-.4.32-.3.56-.5.1-.1h.05l.82-.52a9 9 0 0 1 3.65-1.08 19.29 19.29 0 0 1 7.08 1 56.93 56.93 0 0 0 6.48 1.88 11.56 11.56 0 0 0 6.28-.27 5.63 5.63 0 0 0 3.51-4.49 10.88 10.88 0 0 0-1.44-6.11 37.48 37.48 0 0 0-3.66-5.6c-1.437-1.826-2.7-3.773-3.8-5.82a18.29 18.29 0 0 1-2.14-6.75 12.13 12.13 0 0 1 1.47-7.08 10.09 10.09 0 0 1 2.36-2.84 9.19 9.19 0 0 1 1.58-1l.92-.4.8-.25c.104-.03.212-.04.32-.028a.82.82 0 0 1 .306.097c.095.052.178.122.246.206a.8.8 0 0 1 .148.285c.03.105.04.212.028.32a.83.83 0 0 1-.097.306c-.052.096-.122.178-.206.246a.82.82 0 0 1-.285.148l.01.01zm5.37 1.9l-1.46-2.08-1.4-2.1c-.97-1.4-1.8-2.83-2.64-4.3a.85.85 0 0 1 .87-1.27h.1a27.66 27.66 0 0 0 5.79.35c1 0 1.92-.12 2.87-.2l2.83-.4a1.71 1.71 0 0 1 1.712.801 1.71 1.71 0 0 1-.072 1.889l-.08.1-1.52 2-1.62 1.92a23.09 23.09 0 0 1-1.8 1.78 15.6 15.6 0 0 1-2 1.6.79.79 0 0 1-1.18-.93 15.58 15.58 0 0 1 1.06-2.35 24.84 24.84 0 0 1 1.3-2.17c.46-.7 1-1.37 1.47-2l1.58-2 1.57 2.8a25.72 25.72 0 0 1-3.13.08 30.23 30.23 0 0 1-3.09-.25c-2.026-.3-4.03-.73-6-1.3l1-1.25c.66 1.497 1.414 2.95 2.26 4.35l1.36 2 1.52 1.94a.76.76 0 0 1-.07 1.07.76.76 0 0 1-1.07-.07v-.06l-.16.04z"/></svg>
